X:211
T: Yao chuan diao
N: C1703
O: China, Taiwan, Xinzhu, Miaoli, Taoyuan
S: IV, 633]
R: Xiaodiao. Caimi]
M: 4/4
L: 1/16
K: G
G4A4B2d6 | G2E2G2A2B2B4z2 |
A4d4A2B2A2G2 | A3BD2E2G6z2 |
G4A4B2d6 | G2E2G2A2B2B4z2 |
A4d4A2B2A2G2 | A3BD2E2G4G2E2 |
D2D2E2G2D2D2z4 | G2G2D2E2G2G2z4 |
d4A2B2d2e2d2B2 | A2B2D2E2G2G6

